X:1
T:Miles, 12.10.12.10
T:Miles, 12.10.12.10
T:Anonymous, 1868
T:Public Domain Courtesy of the Cyber Hymnal™
C:Anonymous, 1868
Z:Public Domain
Z:Courtesy of the Cyber Hymnal™
%%score ( 1 2 ) ( 3 4 )
L:1/8
Q:1/4=107
M:3/4
K:Bb
V:1 treble 
V:2 treble 
V:3 bass 
V:4 bass 
V:1
 [Fd]2 [Ec]2 [DB]2 | [FA]3 [EG] [EG]2 | [DF]2 [FB]2 [Fc]2 | [Fd]3 [Ge] [Fc]2 | [Ac]2 [Ac]2 [Bd]2 | %5
 [Ac]4 [GB]2 | [FA]4 [GB]2 | [FA][=EG] F4 | F2 [FA]2 [GB]2 | [Ac]3 [Bd] [Ac]2 | F2 [FA]2 [GB]2 | %11
 [Ac]3 [Bd] [Ac]2 | [Fc]2 [Ff]2 [Fe]2 | [Fd]3 [Fc] [GB]2 | [Gc]2 [FB]2 [EA]2 | [DB]6 |] %16
V:2
 x6 | x6 | x6 | x6 | x6 | x6 | x6 | x2 F4 | F2 x4 | x6 | F2 x4 | x6 | x6 | x6 | x6 | x6 |] %16
V:3
 B,2 [F,A,]2 [G,D]2 | [D,D]3 [E,B,] [E,B,]2 | [B,,B,]2 [D,B,]2 [F,A,]2 | B,3 [E,C] [F,A,]2 | %4
 F,2 F,2 [B,,F,]2 | F,4 [B,,D]2 | [C,C]4 [C,C]2 | [C,C][C,B,] [F,A,]4 | F,2 F,2 F,2 | F,3 F, F,2 | %10
 F,2 F,2 F,2 | F,3 F, F,2 | [F,A,]2 [D,B,]2 [F,A,]2 | B,3 [F,A,] [G,B,]2 | [E,E]2 [F,D]2 [F,C]2 | %15
 [B,,B,]6 |] %16
V:4
 B,2 x4 | x6 | x6 | B,3 x3 | F,2 F,2 x2 | F,4 x2 | x6 | x6 | x6 | x6 | x6 | x6 | x6 | B,3 x3 | x6 | %15
 x6 |] %16

